X:37
T:Levelers and Diggers, to Sound a Charge
C:Gerard Whinstanley 1649
B:A Ballad History of England, Palmer
Z:Digital Tradition
Z:sniff.numachi.com/~rickheit/dtrad
M:4/4
L:1/4
K:F
A,| A, D D E| F2 E F| G2 F E| F3 A,| A, D D E| F2 E D| A,3 E| F G A B|\
c2 A A| G F E D| ^C3 A,| A, D D E| F3 A,| A, D D E| F2 A ^C| D2 D ^C|D3||
